app/public/dtpr-icons/entry.svg

<svg width="36" height="36" viewBox="0 0 36 36" fill="none" xmlns="http://www.w3.org/2000/svg">
<path d="M31.8564 8.8453L19 1.42265C18.3812 1.06538 17.6188 1.06538 17 1.42265L4.14359 8.8453C3.52479 9.20257 3.14359 9.86282 3.14359 10.5774V25.4226C3.14359 26.1372 3.52479 26.7974 4.14359 27.1547L17 34.5774C17.6188 34.9346 18.3812 34.9346 19 34.5774L31.8564 27.1547C32.4752 26.7974 32.8564 26.1372 32.8564 25.4226V10.5774C32.8564 9.86282 32.4752 9.20256 31.8564 8.8453Z" fill="black" stroke="black" stroke-width="2"/>
<mask id="mask0" mask-type="alpha" maskUnits="userSpaceOnUse" x="9" y="9" width="18" height="18">
<path fill-rule="evenodd" clip-rule="evenodd" d="M9 9H26.8419V27H9V9Z" fill="white"/>
</mask>
<g mask="url(#mask0)">
<path fill-rule="evenodd" clip-rule="evenodd" d="M17.8419 9C13.4479 9 9.7899 12.148 8.9999 16.312H17.8419V14.676C17.8419 14.139 18.4859 13.877 18.8669 14.246L22.1939 17.572C22.4319 17.812 22.4319 18.181 22.1939 18.419L18.8549 21.745C18.4859 22.127 17.8419 21.864 17.8419 21.328V19.688H8.9999C9.7899 23.852 13.4479 27 17.8419 27C22.8129 27 26.8419 22.971 26.8419 18C26.8419 13.029 22.8129 9 17.8419 9Z" fill="white"/>
</g>
</svg>

<svg xmlns="http://www.w3.org/2000/svg" width="36" height="36" fill="none"><path fill="#000" stroke="#000" stroke-width="2" d="M31.856 8.845 19 1.423a2 2 0 0 0-2 0L4.144 8.845a2 2 0 0 0-1 1.732v14.846a2 2 0 0 0 1 1.732L17 34.577a2 2 0 0 0 2 0l12.856-7.422a2 2 0 0 0 1-1.732V10.577a2 2 0 0 0-1-1.732Z"/><mask id="a" width="18" height="18" x="9" y="9" mask-type="alpha" maskUnits="userSpaceOnUse"><path fill="#fff" fill-rule="evenodd" d="M9 9h17.842v18H9z" clip-rule="evenodd"/></mask><g mask="url(#a)"><path fill="#fff" fill-rule="evenodd" d="M17.842 9A9 9 0 0 0 9 16.312h8.842v-1.636c0-.537.644-.799 1.025-.43l3.327 3.326a.59.59 0 0 1 0 .847l-3.34 3.326c-.368.382-1.012.119-1.012-.417v-1.64H9A9.002 9.002 0 0 0 26.842 18a9 9 0 0 0-9-9" clip-rule="evenodd"/></g></svg>
